X: 35176
T: Rookery Lane
R: reel
M: 4/4
K: Amajor
|:a4 a2ge|fafe fecA|ABBB Bccc|fece fece|
a4 a2ge|fafe fecA|ABBB BAEF|ABBA cdcA:|
|:EF3 EFA2-|A4- ABBA|Bcec BAB2-|B2BA BcBA|
EF3 EFA2-|A4- ABBA|agfe feB2-|BBBA BcBA:|

